packages/ffe-icons/icons/filled/sm/add_box.svg

<svg xmlns="http://www.w3.org/2000/svg" height="20" viewBox="0 -960 960 960" width="20"><path d="M454.001-454.001V-324q0 11.05 7.418 18.524 7.418 7.475 18.384 7.475 10.966 0 18.581-7.475 7.615-7.474 7.615-18.524v-130.001H636q11.05 0 18.524-7.418 7.475-7.418 7.475-18.384 0-10.966-7.475-18.581-7.474-7.615-18.524-7.615H505.999V-636q0-11.05-7.418-18.524-7.418-7.475-18.384-7.475-10.966 0-18.581 7.475-7.615 7.474-7.615 18.524v130.001H324q-11.05 0-18.524 7.418-7.475 7.418-7.475 18.384 0 10.966 7.475 18.581 7.474 7.615 18.524 7.615h130.001Zm-225.692 290q-27.008 0-45.658-18.65-18.65-18.65-18.65-45.658v-503.382q0-27.008 18.65-45.658 18.65-18.65 45.658-18.65h503.382q27.008 0 45.658 18.65 18.65 18.65 18.65 45.658v503.382q0 27.008-18.65 45.658-18.65 18.65-45.658 18.65H228.309Z"/></svg>

<svg xmlns="http://www.w3.org/2000/svg" height="20" viewBox="0 -960 960 960" width="20"><path d="M454-454v130q0 11.05 7.42 18.52 7.42 7.48 18.38 7.48 10.97 0 18.58-7.48Q506-312.95 506-324v-130h130q11.05 0 18.52-7.42 7.48-7.42 7.48-18.38 0-10.97-7.48-18.58Q647.05-506 636-506H506v-130q0-11.05-7.42-18.52-7.42-7.48-18.38-7.48-10.97 0-18.58 7.48Q454-647.05 454-636v130H324q-11.05 0-18.52 7.42-7.48 7.42-7.48 18.38 0 10.97 7.48 18.58Q312.95-454 324-454h130ZM228.31-164q-27.01 0-45.66-18.65Q164-201.3 164-228.31v-503.38q0-27.01 18.65-45.66Q201.3-796 228.31-796h503.38q27.01 0 45.66 18.65Q796-758.7 796-731.69v503.38q0 27.01-18.65 45.66Q758.7-164 731.69-164H228.31Z"/></svg>
